X: 25167
T: Major David Manson
R: reel
M: 4/4
K: Amixolydian
|:"A" A2cB cAAc|e2ae cAAc|"D" d2fd "A" cecA|"f#m" c2dc "G" BGGB|
"A" A2cB cAAc|e2ae cAAc|"D" d2fd "A" cecA|"G" B2GB "A" cAAe:|
|:"A" aA ~A2 aeea|"D" fd ~d2 "A" ecce|"D" d2fd "A" cecA|"f#m" c2dc "G" BGGe|
"A" aA ~A2 aeea|"D" fd ~d2 "A" ecce|"D" d2fd "A" cecA|"G" B2GB "A" cAAe:|

